icons/SVG/speeg_icon.svg

<?xml version="1.0" encoding="UTF-8"?>
<svg width="300px" height="260px" viewBox="0 0 300 260" version="1.1" xmlns="http://www.w3.org/2000/svg" xmlns:xlink="http://www.w3.org/1999/xlink">
    <!-- Generator: Sketch 42 (36781) - http://www.bohemiancoding.com/sketch -->
    <title>speeg_icon</title>
    <desc>Created with Sketch.</desc>
    <defs></defs>
    <g id="Page-1" stroke="none" stroke-width="1" fill="none" fill-rule="evenodd">
        <g id="speeg_icon" fill="#1A1918">
            <g id="Speed_Icon">
                <path d="M149.851605,160.61702 C167.78905,160.61702 185.727806,160.642434 203.665251,160.605617 C212.098657,160.587697 215.539487,157.44717 215.889596,149.119351 C216.763395,128.321306 209.146146,111.077246 193.575295,97.243812 C174.195491,80.0280977 144.718199,76.0671704 120.38119,87.4201779 C96.7617576,98.4398772 81.861976,122.670704 82.9607751,148.272885 C83.3600109,157.579777 86.5604476,160.61702 96.0356659,160.623862 C113.973766,160.634288 131.912522,160.626469 149.851605,160.61702 M149.062959,167.488449 C130.921474,167.483887 112.779989,167.538624 94.6394869,167.46499 C82.3981114,167.414489 76.6067358,161.877596 75.9245306,149.849175 C73.3149236,103.788449 114.335011,67.6285739 160.999094,74.8567694 C197.873876,80.5676466 224.127806,111.3089 223.431845,147.957822 C223.181299,161.187195 216.809574,167.46108 203.486103,167.483887 C185.344618,167.51712 167.204116,167.492358 149.062959,167.488449" id="Fill-1"></path>
                <path d="M176.183286,99.4890977 C174.549989,98.3246366 171.568985,99.4734586 170.341146,100.614787 C159.27881,110.9001 148.374334,121.357769 137.624116,131.970201 C133.739836,135.806015 132.850972,140.799123 135.235906,145.73391 C137.724007,150.88406 141.945622,153.946717 148.039618,153.690952 C153.89191,153.628722 158.106976,151.240827 160.824007,144.834662 C166.483723,131.488321 171.686889,117.944211 176.864836,104.403033 C177.382631,103.046992 177.549334,100.463609 176.183286,99.4890977" id="Fill-3"></path>
                <path d="M101.131965,142.22505 C101.131965,144.42886 99.3355677,146.21693 97.1189738,146.21693 C94.9033624,146.21693 93.1066376,144.42886 93.1066376,142.22505 C93.1066376,140.019937 94.9033624,138.232519 97.1189738,138.232519 C99.3355677,138.232519 101.131965,140.019937 101.131965,142.22505" id="Fill-5"></path>
                <path d="M112.121463,117.659286 C112.121463,119.862769 110.32441,121.650514 108.108144,121.650514 C105.891878,121.650514 104.09548,119.862769 104.09548,117.659286 C104.09548,115.454173 105.891878,113.666754 108.108144,113.666754 C110.32441,113.666754 112.121463,115.454173 112.121463,117.659286" id="Fill-7"></path>
                <path d="M130.367096,100.220258 C130.367096,102.423742 128.570044,104.211486 126.35345,104.211486 C124.138493,104.211486 122.341769,102.423742 122.341769,100.220258 C122.341769,98.0151454 124.138493,96.2277268 126.35345,96.2277268 C128.570044,96.2277268 130.367096,98.0151454 130.367096,100.220258" id="Fill-9"></path>
                <path d="M154.801048,94.3190075 C154.801048,96.522817 153.003996,98.3102356 150.787402,98.3102356 C148.572445,98.3102356 146.775393,96.522817 146.775393,94.3190075 C146.775393,92.1138947 148.572445,90.3264762 150.787402,90.3264762 C153.003996,90.3264762 154.801048,92.1138947 154.801048,94.3190075" id="Fill-11"></path>
                <path d="M195.685841,117.659286 C195.685841,119.862769 193.889116,121.650514 191.672522,121.650514 C189.457238,121.650514 187.660513,119.862769 187.660513,117.659286 C187.660513,115.454173 189.457238,113.666754 191.672522,113.666754 C193.889116,113.666754 195.685841,115.454173 195.685841,117.659286" id="Fill-13"></path>
                <path d="M203.092598,142.22505 C203.092598,144.42886 201.295546,146.21693 199.078952,146.21693 C196.863996,146.21693 195.066943,144.42886 195.066943,142.22505 C195.066943,140.019937 196.863996,138.232519 199.078952,138.232519 C201.295546,138.232519 203.092598,140.019937 203.092598,142.22505" id="Fill-15"></path>
                <path d="M179.279607,100.218662 C179.279607,102.422471 177.482882,104.20989 175.265961,104.20989 C173.051004,104.20989 171.254279,102.422471 171.254279,100.218662 C171.254279,98.0135489 173.051004,96.2261303 175.265961,96.2261303 C177.482882,96.2261303 179.279607,98.0135489 179.279607,100.218662" id="Fill-17"></path>
                <path d="M80.3781878,249.963707 L219.622074,249.963707 L289.24369,130.000424 L219.622074,10.0364887 L80.3781878,10.0364887 L10.7562445,130.000424 L80.3781878,249.963707 Z M222.458319,259.738143 L77.5419432,259.738143 C75.7868122,259.738143 74.1649782,258.806639 73.2875764,257.294534 L0.829388646,132.444033 C-0.0483406114,130.931927 -0.0483406114,129.06892 0.829388646,127.556815 L73.2875764,2.70566165 C74.1649782,1.19355639 75.7868122,0.262052632 77.5419432,0.262052632 L222.458319,0.262052632 C224.21345,0.262052632 225.834956,1.19355639 226.712686,2.70566165 L299.170546,127.556815 C300.048275,129.06892 300.048275,130.931927 299.170546,132.444033 L226.712686,257.294534 C225.834956,258.806639 224.21345,259.738143 222.458319,259.738143 L222.458319,259.738143 Z" id="Fill-19"></path>
            </g>
        </g>
    </g>
</svg>

<svg width="300" height="260" viewBox="0 0 300 260" xmlns="http://www.w3.org/2000/svg"><title>speeg_icon</title><g fill="#57B8BA" fill-rule="evenodd"><path d="M149.852 160.617c17.937 0 35.876.025 53.813-.011 8.434-.018 11.874-3.159 12.225-11.487.873-20.798-6.744-38.042-22.315-51.875-19.38-17.216-48.857-21.177-73.194-9.824-23.62 11.02-38.519 35.25-37.42 60.853.399 9.307 3.6 12.344 13.075 12.35 17.938.011 35.877.003 53.816-.006m-.789 6.871c-18.142-.004-36.283.05-54.424-.023-12.24-.05-18.032-5.587-18.714-17.616-2.61-46.06 38.41-82.22 85.074-74.992 36.875 5.71 63.129 36.452 62.433 73.1-.25 13.23-6.622 19.504-19.946 19.527-18.141.033-36.282.008-54.423.004"/><path d="M176.183 99.49c-1.633-1.165-4.614-.017-5.842 1.125a1514.071 1514.071 0 0 0-32.717 31.355c-3.884 3.836-4.773 8.83-2.388 13.764 2.488 5.15 6.71 8.213 12.804 7.957 5.852-.062 10.067-2.45 12.784-8.856 5.66-13.347 10.863-26.89 16.04-40.432.519-1.356.685-3.94-.68-4.914m-75.052 42.736c0 2.204-1.796 3.992-4.013 3.992-2.216 0-4.012-1.788-4.012-3.992 0-2.205 1.796-3.992 4.012-3.992 2.217 0 4.013 1.787 4.013 3.992m10.989-24.565c0 2.203-1.797 3.99-4.013 3.99s-4.013-1.787-4.013-3.99c0-2.206 1.797-3.993 4.013-3.993s4.013 1.787 4.013 3.992m18.246-17.439c0 2.204-1.797 3.991-4.014 3.991-2.215 0-4.011-1.787-4.011-3.99 0-2.206 1.796-3.993 4.011-3.993 2.217 0 4.014 1.787 4.014 3.992m24.434-5.901c0 2.204-1.797 3.991-4.014 3.991-2.215 0-4.012-1.787-4.012-3.991 0-2.205 1.797-3.993 4.012-3.993 2.217 0 4.014 1.788 4.014 3.993m40.885 23.341c0 2.203-1.797 3.99-4.013 3.99s-4.012-1.787-4.012-3.99c0-2.206 1.796-3.993 4.012-3.993 2.216 0 4.013 1.787 4.013 3.992m7.407 24.566c0 2.204-1.797 3.992-4.014 3.992-2.215 0-4.012-1.788-4.012-3.992 0-2.205 1.797-3.992 4.012-3.992 2.217 0 4.014 1.787 4.014 3.992"/><path d="M179.28 100.219c0 2.203-1.797 3.99-4.014 3.99-2.215 0-4.012-1.787-4.012-3.99 0-2.205 1.797-3.993 4.012-3.993 2.217 0 4.014 1.788 4.014 3.993"/><path d="M80.378 249.964h139.244L289.244 130 219.622 10.036H80.378L10.756 130l69.622 119.964zm142.08 9.774H77.542a4.917 4.917 0 0 1-4.254-2.443L.829 132.444a4.865 4.865 0 0 1 0-4.887L73.288 2.706A4.917 4.917 0 0 1 77.542.262h144.916a4.92 4.92 0 0 1 4.255 2.444l72.458 124.85a4.865 4.865 0 0 1 0 4.888l-72.458 124.85a4.917 4.917 0 0 1-4.255 2.444z"/></g></svg>
